X:49
T:Doctor Gilbert (reel) 
T:Dispute at the Crossroads
B:CRE1.180 (Dochtuir Gilibeart)
F:file ID: cre.1/049doct_g
S:Sonny Brogan
M:C
L:1/8
Q:180
R:reel
K:Em
eBBA B2ed|(3B^cd Ad BAGF|EDB,D GABG|EDB,E DB,A,2|
B,DEF DEB,2|(3GFE (3FED E2 (3FGA|Bded Bdgb|afdf e3 z:|
eBB/A/B gBB/A/B|defg afdf|gfge fefd|e2ed eBB/A/B|
afdf edB^c|(3d^cB AF AFD2|EAcA Bdgb|afdf e3z:|

%%%

